packages/IcoMoon/src/ConnectionIcon/index.svg

<svg version="1.1" xmlns="http://www.w3.org/2000/svg" width="20" height="16" viewBox="0 0 20 16">
<path d="M10 9c1.654 0 3.154 0.673 4.241 1.759l-1.414 1.414c-0.724-0.724-1.724-1.173-2.827-1.173s-2.103 0.449-2.827 1.173l-1.414-1.414c1.086-1.086 2.586-1.759 4.241-1.759zM2.929 7.929c1.889-1.889 4.4-2.929 7.071-2.929s5.182 1.040 7.071 2.929l-1.414 1.414c-1.511-1.511-3.52-2.343-5.657-2.343s-4.146 0.832-5.657 2.343l-1.414-1.414zM15.45 2.101c1.667 0.705 3.164 1.715 4.45 3v0l-1.414 1.414c-2.267-2.266-5.28-3.515-8.485-3.515s-6.219 1.248-8.485 3.515l-1.414-1.414c1.285-1.285 2.783-2.295 4.45-3 1.727-0.73 3.56-1.101 5.45-1.101s3.723 0.37 5.45 1.101zM9 14c0-0.552 0.448-1 1-1s1 0.448 1 1c0 0.552-0.448 1-1 1s-1-0.448-1-1z"></path>
</svg>

<svg xmlns="http://www.w3.org/2000/svg" viewBox="0 0 20 16">
  <path d="M10 9c1.654 0 3.154.673 4.241 1.759l-1.414 1.414C12.103 11.449 11.103 11 10 11s-2.103.449-2.827 1.173l-1.414-1.414A5.982 5.982 0 0110 9zM2.929 7.929C4.818 6.04 7.329 5 10 5s5.182 1.04 7.071 2.929l-1.414 1.414C14.146 7.832 12.137 7 10 7s-4.146.832-5.657 2.343L2.929 7.929zM15.45 2.101a13.966 13.966 0 014.45 3l-1.414 1.414C16.219 4.249 13.206 3 10.001 3S3.782 4.248 1.516 6.515L.102 5.101A13.955 13.955 0 0110.002 1c1.89 0 3.723.37 5.45 1.101zM9 14a1 1 0 112 0 1 1 0 01-2 0z"/>
</svg>
